images_sukapura_svg/cmd/32/insertmath.svg

<svg viewBox="0 0 32 32" xmlns="http://www.w3.org/2000/svg" xmlns:xlink="http://www.w3.org/1999/xlink"><linearGradient id="a" gradientUnits="userSpaceOnUse" x1="15.084746" x2="15.084746" y1="22.949152" y2="2.949152"><stop offset="0" stop-color="#0040dd"/><stop offset="1" stop-color="#0a84ff"/></linearGradient><path d="m23.087967 5.9627202h-3.173277v12.7318048q0 1.431844.503081 1.973623.50308.52243 1.373796.52243.483731 0 .948113-.135445.464382-.135445.832018-.367636l.851367 2.57345q-.890066.599827-1.741433.812669-.851366.212841-1.896226.212841-2.30256 0-3.502214-1.373796-1.199653-1.373797-1.199653-4.430978v-12.5189628h-6.8302841v17.9174028h-3.8118017v-17.9174028h-2.4573544v-3.0184826h20.1038682z" fill="url(#a)" transform="matrix(1.212745 0 0 1.2305142 -.618951 -.622926)"/></svg>

<?xml version="1.0" encoding="UTF-8" standalone="no"?>
<svg
   xmlns:dc="http://purl.org/dc/elements/1.1/"
   xmlns:cc="http://creativecommons.org/ns#"
   xmlns:rdf="http://www.w3.org/1999/02/22-rdf-syntax-ns#"
   xmlns:svg="http://www.w3.org/2000/svg"
   xmlns="http://www.w3.org/2000/svg"
   xmlns:xlink="http://www.w3.org/1999/xlink"
   xmlns:sodipodi="http://sodipodi.sourceforge.net/DTD/sodipodi-0.dtd"
   xmlns:inkscape="http://www.inkscape.org/namespaces/inkscape"
   viewBox="0 0 32 32"
   version="1.1"
   id="svg3037"
   sodipodi:docname="insertmath.svg"
   inkscape:version="0.92.3 (2405546, 2018-03-11)">
  <metadata
     id="metadata3043">
    <rdf:RDF>
      <cc:Work
         rdf:about="">
        <dc:format>image/svg+xml</dc:format>
        <dc:type
           rdf:resource="http://purl.org/dc/dcmitype/StillImage" />
      </cc:Work>
    </rdf:RDF>
  </metadata>
  <defs
     id="defs3041">
    <linearGradient
       gradientTransform="translate(1.0847458,0.94915194)"
       inkscape:collect="always"
       xlink:href="#a-4"
       id="linearGradient2121"
       x1="14"
       y1="22"
       x2="14"
       y2="2"
       gradientUnits="userSpaceOnUse" />
    <linearGradient
       id="a-4"
       gradientUnits="userSpaceOnUse"
       x1="-15.79661"
       x2="-15.423729"
       y1="23.084747"
       y2="3.6610169"
       gradientTransform="translate(-31.972656,-0.8476562)">
      <stop
         offset="0"
         stop-color="#0040dd"
         id="stop1551" />
      <stop
         offset="1"
         stop-color="#0a84ff"
         id="stop1553" />
    </linearGradient>
    <linearGradient
       inkscape:collect="always"
       xlink:href="#a-4"
       id="linearGradient3600"
       x1="14"
       y1="22"
       x2="14"
       y2="2"
       gradientUnits="userSpaceOnUse" />
    <linearGradient
       inkscape:collect="always"
       xlink:href="#a-4"
       id="linearGradient3636"
       gradientUnits="userSpaceOnUse"
       gradientTransform="translate(1.0847458,0.94915194)"
       x1="14"
       y1="22"
       x2="14"
       y2="2" />
  </defs>
  <sodipodi:namedview
     pagecolor="#ffffff"
     bordercolor="#666666"
     borderopacity="1"
     objecttolerance="10"
     gridtolerance="10"
     guidetolerance="10"
     inkscape:pageopacity="0"
     inkscape:pageshadow="2"
     inkscape:window-width="1366"
     inkscape:window-height="716"
     id="namedview3039"
     showgrid="true"
     inkscape:zoom="14.75"
     inkscape:cx="25.638716"
     inkscape:cy="17.446592"
     inkscape:window-x="-8"
     inkscape:window-y="-8"
     inkscape:window-maximized="1"
     inkscape:current-layer="svg3037">
    <inkscape:grid
       type="xygrid"
       id="grid3610" />
  </sodipodi:namedview>
  <linearGradient
     id="a"
     gradientUnits="userSpaceOnUse"
     x1="-17.271187"
     x2="-17.711865"
     y1="31.525423"
     y2="6.440678"
     gradientTransform="translate(-5,0.075196)">
    <stop
       offset="0"
       stop-color="#0040dd"
       id="stop3030" />
    <stop
       offset="1"
       stop-color="#0a84ff"
       id="stop3032" />
  </linearGradient>
  <g
     aria-label="π"
     style="font-style:normal;font-weight:normal;font-size:39.6272583px;line-height:1.25;font-family:sans-serif;letter-spacing:0px;word-spacing:0px;fill:url(#linearGradient2121);fill-opacity:1;stroke:none;stroke-width:0.99068141"
     id="text2113"
     transform="matrix(1.212745,0,0,1.2305142,-0.61895103,-0.62292626)">
    <path
       d="M 23.087967,5.9627202 H 19.91469 V 18.694525 q 0,1.431844 0.503081,1.973623 0.50308,0.52243 1.373796,0.52243 0.483731,0 0.948113,-0.135445 0.464382,-0.135445 0.832018,-0.367636 l 0.851367,2.57345 q -0.890066,0.599827 -1.741433,0.812669 -0.851366,0.212841 -1.896226,0.212841 -2.30256,0 -3.502214,-1.373796 -1.199653,-1.373797 -1.199653,-4.430978 V 5.9627202 H 9.2532549 V 23.880123 H 5.4414532 V 5.9627202 H 2.9840988 V 2.9442376 H 23.087967 Z"
       style="font-style:normal;font-variant:normal;font-weight:normal;font-stretch:normal;font-family:'Roboto Slab';-inkscape-font-specification:'Roboto Slab';fill:url(#linearGradient3636);fill-opacity:1;stroke-width:0.99068141"
       id="path3633"
       inkscape:connector-curvature="0" />
  </g>
</svg>
